X:22
T:Girl I Left Behind Me
Z: id:dc-polka-48
M:2/4
L:1/8
K:G Major
g/f/|ed BA|BG ED|GG G/A/B/c/|d2 Bg/f/|!
ed BA|BG E>G|FA DE/F/|G2 G:|!
G/A/|Bd ef|gd BG|Bd ef|g2 fg/f/|!
ed BA|BG E>G|FA DE/F/|G2 G:|!

